; generated by PrusaSlicer 2.9.0 on 2025-02-28 at 20:08:18 UTC


;
;
; 

; external perimeters extrusion width = 0.60mm
; perimeters extrusion width = 0.50mm
; infill extrusion width = 0.50mm
; solid infill extrusion width = 0.50mm
; top infill extrusion width = 0.45mm
; first layer extrusion width = 0.42mm

M73 P0 R16
M73 Q0 S16
M201 X1000 Y1000 Z200 E5000 ; sets maximum accelerations, mm/sec^2
M203 X200 Y200 Z12 E120 ; sets maximum feedrates, mm / sec
M204 S1250 T1250 ; sets acceleration (S) and retract acceleration (R), mm/sec^2
M205 X8.00 Y8.00 Z0.40 E4.50 ; sets the jerk limits, mm/sec
M205 S0 T0 ; sets the minimum extruding and travel feed rate, mm/sec

; printing object cut_box.STL id:0 copy 0
; stop printing object cut_box.STL id:0 copy 0

;TYPE:Custom
M862.3 P "MK3S" ; printer model check
M862.1 P0.4 ; nozzle diameter check
M115 U3.14.1 ; tell printer latest fw version
G90 ; use absolute coordinates
M83 ; extruder relative mode
M104 S215 ; set extruder temp
M140 S60 ; set bed temp
M190 S60 ; wait for bed temp
M109 S215 ; wait for extruder temp
G28 W ; home all without mesh bed level
G80 X112.097 Y85.6805 W30.5083 H30.5083 ; mesh bed levelling

G1 Z0.2 F720
G1 Y-3 F1000 ; go outside print area
G92 E0
G1 X60 E9 F1000 ; intro line
G1 X100 E12.5 F1000 ; intro line

G92 E0
M221 S95

; Don't change E values below. Excessive value can damage the printer.

M907 E538 ; set extruder motor current
G21 ; set units to millimeters
G90 ; use absolute coordinates
M83 ; use relative distances for extrusion

M900 K0.05 ; Filament gcode LA 1.5
M900 K30 ; Filament gcode LA 1.0




M107
;LAYER_CHANGE
;Z:0.2
;HEIGHT:0.2
G1 E-.8 F2100
G1 Z.6 F720
G1 X112.678 Y87.071 F10800
G1 Z.2 F720
G1 E.8 F2100
M204 S800
;TYPE:Skirt/Brim
;WIDTH:0.42
G1 F1200
G1 X113.734 Y86.125 E.04445
G1 X114.851 Y85.869 E.03593
G1 X139.851 Y85.869 E.78386
G1 X141.214 Y86.261 E.04447
G1 X142.161 Y87.318 E.0445
G1 X142.417 Y88.435 E.03593
G1 X142.417 Y113.435 E.78386
G1 X142.025 Y114.798 E.04447
M73 P1 R16
M73 Q1 S16
G1 X140.968 Y115.744 E.04448
G1 X139.851 Y116 E.03593
G1 X114.851 Y116 E.78386
G1 X113.488 Y115.608 E.04447
G1 X112.541 Y114.551 E.0445
G1 X112.285 Y113.435 E.0359
G1 X112.285 Y88.435 E.78386
G1 X112.661 Y87.129 E.04261
M204 S1000
G1 X113.035 Y87.246 F10800
M204 S800
G1 F1200
G1 X113.053 Y87.186 E.00196
G1 X114.086 Y86.384 E.041
G1 X114.851 Y86.246 E.02437
G1 X139.851 Y86.246 E.78386
G1 X141.099 Y86.637 E.04101
G1 X141.902 Y87.67 E.04102
G1 X142.04 Y88.435 E.02437
G1 X142.04 Y113.435 E.78386
G1 X141.649 Y114.683 E.04101
G1 X140.616 Y115.485 E.041
G1 X139.851 Y115.623 E.02437
G1 X114.851 Y115.623 E.78386
G1 X113.603 Y115.232 E.04101
G1 X112.801 Y114.199 E.041
G1 X112.663 Y113.435 E.02434
G1 X112.663 Y88.435 E.78386
G1 X113.017 Y87.303 E.03719
M204 S1000
;WIPE_START
G1 F8640
G1 X113.035 Y87.246 E-.0138
G1 X113.053 Y87.186 E-.01446
G1 X114.086 Y86.384 E-.30197
G1 X114.851 Y86.246 E-.17949
G1 X116.108 Y86.246 E-.29028
;WIPE_END
G1 Z.6 F720
; printing object cut_box.STL id:0 copy 0
G1 X139.064 Y89.222 F10800
G1 Z.2 F720
G1 E.8 F2100
M204 S800
;TYPE:Perimeter
;WIDTH:0.419999
G1 F1200
G1 X139.064 Y100.935 E.36725
G1 X139.064 Y112.648 E.36725
M73 P2 R16
M73 Q2 S16
G1 X115.638 Y112.648 E.7345
G1 X115.638 Y89.222 E.7345
G1 X139.004 Y89.222 E.73262
M73 P2 R15
M204 S1000
G1 X139.004 Y89.222 F10800
G1 X139.441 Y88.845
M204 S800
;TYPE:External perimeter
G1 F1200
G1 X139.441 Y100.935 E.37907
G1 X139.441 Y113.025 E.37907
G1 X115.261 Y113.025 E.75815
G1 X115.261 Y88.845 E.75815
G1 X139.381 Y88.845 E.75626
M204 S1000
;WIPE_START
G1 F8640
G1 X139.441 Y88.845 E-.01385
G1 X139.441 Y92.25 E-.78615
;WIPE_END
G1 Z.6 F720
G1 X138.125 Y89.391 F10800
G1 Z.2 F720
G1 E.8 F2100
M204 S800
;TYPE:Solid infill
;WIDTH:0.423181
G1 F1200
G1 X138.725 Y89.991 E.02683
G1 X138.725 Y90.529 E.01701
G1 X137.757 Y89.561 E.04328
G1 X137.219 Y89.561 E.01701
M73 Q3 S16
G1 X138.725 Y91.066 E.06732
M73 P3 R15
G1 X138.725 Y91.604 E.01701
G1 X136.682 Y89.561 E.09135
G1 X136.144 Y89.561 E.01701
G1 X138.725 Y92.142 E.11541
G1 X138.725 Y92.68 E.01701
G1 X135.606 Y89.561 E.13947
G1 X135.068 Y89.561 E.01701
G1 X138.725 Y93.217 E.1635
G1 X138.725 Y93.755 E.01701
G1 X134.531 Y89.561 E.18754
G1 X133.993 Y89.561 E.01701
G1 X138.725 Y94.293 E.2116
G1 X138.725 Y94.831 E.01701
G1 X133.455 Y89.561 E.23565
G1 X132.917 Y89.561 E.01701
G1 X138.725 Y95.368 E.25969
G1 X138.725 Y95.906 E.01701
G1 X132.38 Y89.561 E.28372
G1 X131.842 Y89.561 E.01701
G1 X138.725 Y96.444 E.30778
G1 X138.725 Y96.982 E.01701
M73 Q3 S15
G1 X131.304 Y89.561 E.33184
G1 X130.766 Y89.561 E.01701
G1 X138.725 Y97.52 E.35589
G1 X138.725 Y98.057 E.01698
G1 X130.228 Y89.561 E.37993
G1 X129.691 Y89.561 E.01698
G1 X138.725 Y98.595 E.40396
G1 X138.725 Y99.133 E.01701
G1 X129.153 Y89.561 E.42802
G1 X128.615 Y89.561 E.01701
G1 X138.725 Y99.671 E.45208
G1 X138.725 Y100.208 E.01698
G1 X128.077 Y89.561 E.47611
G1 X127.54 Y89.561 E.01698
G1 X138.725 Y100.746 E.50015
G1 X138.725 Y101.284 E.01701
G1 X127.002 Y89.561 E.5242
G1 X126.464 Y89.561 E.01701
M73 P4 R15
M73 Q4 S15
G1 X138.725 Y101.822 E.54826
G1 X138.725 Y102.359 E.01698
G1 X125.926 Y89.561 E.57229
G1 X125.389 Y89.561 E.01698
G1 X138.725 Y102.897 E.59633
G1 X138.725 Y103.435 E.01701
G1 X124.851 Y89.561 E.62039
G1 X124.313 Y89.561 E.01701
G1 X138.725 Y103.973 E.64444
G1 X138.725 Y104.511 E.01701
G1 X123.775 Y89.561 E.6685
G1 X123.237 Y89.561 E.01701
G1 X138.725 Y105.048 E.69254
G1 X138.725 Y105.586 E.01701
G1 X122.7 Y89.561 E.71657
G1 X122.162 Y89.561 E.01701
G1 X138.725 Y106.124 E.74063
G1 X138.725 Y106.662 E.01701
M73 P5 R15
G1 X121.624 Y89.561 E.76468
G1 X121.086 Y89.561 E.01701
M73 Q5 S15
G1 X138.725 Y107.199 E.78872
G1 X138.725 Y107.737 E.01701
G1 X120.549 Y89.561 E.81275
G1 X120.011 Y89.561 E.01701
G1 X138.725 Y108.275 E.83681
G1 X138.725 Y108.813 E.01701
G1 X119.473 Y89.561 E.86087
G1 X118.935 Y89.561 E.01701
G1 X138.725 Y109.35 E.8849
G1 X138.725 Y109.888 E.01701
G1 X118.398 Y89.561 E.90894
G1 X117.86 Y89.561 E.01701
G1 X138.725 Y110.426 E.93299
G1 X138.725 Y110.964 E.01701
M73 P6 R15
M73 Q6 S15
G1 X117.322 Y89.561 E.95705
G1 X116.784 Y89.561 E.01701
G1 X138.725 Y111.502 E.98111
G1 X138.725 Y112.039 E.01698
G1 X116.246 Y89.561 E1.00514
G1 X115.978 Y89.561 E.00847
G1 X115.978 Y89.83 E.00851
G1 X138.456 Y112.308 E1.00512
G1 X137.918 Y112.308 E.01701
G1 X115.978 Y90.368 E.98106
G1 X115.978 Y90.906 E.01701
G1 X137.38 Y112.308 E.95701
G1 X136.842 Y112.308 E.01701
M73 P7 R15
M73 Q7 S15
G1 X115.978 Y91.443 E.93297
G1 X115.978 Y91.981 E.01701
G1 X136.305 Y112.308 E.90894
G1 X135.767 Y112.308 E.01701
G1 X115.978 Y92.519 E.88488
G1 X115.978 Y93.057 E.01701
G1 X135.229 Y112.308 E.86082
G1 X134.691 Y112.308 E.01701
G1 X115.978 Y93.594 E.83679
G1 X115.978 Y94.132 E.01701
G1 X134.154 Y112.308 E.81275
G1 X133.616 Y112.308 E.01701
G1 X115.978 Y94.67 E.7887
G1 X115.978 Y95.208 E.01701
M73 P8 R15
M73 Q8 S15
G1 X133.078 Y112.308 E.76464
G1 X132.54 Y112.308 E.01701
G1 X115.978 Y95.745 E.74061
G1 X115.978 Y96.283 E.01701
G1 X132.003 Y112.308 E.71657
G1 X131.465 Y112.308 E.01701
M73 P8 R14
G1 X115.978 Y96.821 E.69251
G1 X115.978 Y97.359 E.01701
G1 X130.927 Y112.308 E.66846
G1 X130.389 Y112.308 E.01701
G1 X115.978 Y97.897 E.6444
G1 X115.978 Y98.434 E.01698
G1 X129.851 Y112.308 E.62036
G1 X129.314 Y112.308 E.01698
G1 X115.978 Y98.972 E.59633
G1 X115.978 Y99.51 E.01701
M73 P9 R14
G1 X128.776 Y112.308 E.57227
G1 X128.238 Y112.308 E.01701
M73 Q9 S15
G1 X115.978 Y100.048 E.54822
G1 X115.978 Y100.585 E.01698
G1 X127.7 Y112.308 E.52418
G1 X127.163 Y112.308 E.01698
G1 X115.978 Y101.123 E.50015
G1 X115.978 Y101.661 E.01701
G1 X126.625 Y112.308 E.47609
G1 X126.087 Y112.308 E.01701
G1 X115.978 Y102.199 E.45203
G1 X115.978 Y102.736 E.01698
M73 Q9 S14
G1 X125.549 Y112.308 E.428
G1 X125.011 Y112.308 E.01701
G1 X115.978 Y103.274 E.40394
G1 X115.978 Y103.812 E.01701
G1 X124.474 Y112.308 E.37991
G1 X123.936 Y112.308 E.01701
G1 X115.978 Y104.35 E.35585
G1 X115.978 Y104.888 E.01701
G1 X123.398 Y112.308 E.33179
G1 X122.86 Y112.308 E.01701
G1 X115.978 Y105.425 E.30776
G1 X115.978 Y105.963 E.01701
G1 X122.323 Y112.308 E.28372
G1 X121.785 Y112.308 E.01701
G1 X115.978 Y106.501 E.25966
G1 X115.978 Y107.039 E.01701
M73 P10 R14
G1 X121.247 Y112.308 E.23561
G1 X120.709 Y112.308 E.01701
G1 X115.978 Y107.576 E.21157
G1 X115.978 Y108.114 E.01701
M73 Q10 S14
G1 X120.172 Y112.308 E.18754
G1 X119.634 Y112.308 E.01701
G1 X115.978 Y108.652 E.16348
G1 X115.978 Y109.19 E.01701
G1 X119.096 Y112.308 E.13942
G1 X118.558 Y112.308 E.01701
G1 X115.978 Y109.727 E.11539
G1 X115.978 Y110.265 E.01701
G1 X118.02 Y112.308 E.09133
G1 X117.483 Y112.308 E.01698
G1 X115.978 Y110.803 E.0673
G1 X115.978 Y111.341 E.01701
G1 X116.945 Y112.308 E.04324
G1 X116.407 Y112.308 E.01701
G1 X115.808 Y111.709 E.02678
M204 S1000
M106 S84.15
;LAYER_CHANGE
;Z:0.5
;HEIGHT:0.3
;BEFORE_LAYER_CHANGE
G92 E0.0
;0.5


;WIPE_START
G1 F8640
G1 X116.407 Y112.308 E-.1956
G1 X116.945 Y112.308 E-.12423
G1 X115.978 Y111.341 E-.31577
G1 X115.978 Y110.803 E-.12423
G1 X116.101 Y110.926 E-.04017
;WIPE_END
G1 Z.5 F720
;AFTER_LAYER_CHANGE
;0.5
M104 S210 ; set temperature
; stop printing object cut_box.STL id:0 copy 0
G1 Z.9
G1 X112.285 Y111.709 F10800
G1 Z.5 F720
G1 E.8 F2100
;TYPE:Skirt/Brim
;WIDTH:0.42
G1 F2700
G1 X112.285 Y88.435 E1.03231
G1 X112.678 Y87.071 E.06296
G1 X113.734 Y86.125 E.06288
G1 X114.851 Y85.869 E.05083
G1 X139.851 Y85.869 E1.10887
G1 X141.214 Y86.261 E.06291
G1 X142.161 Y87.318 E.06295
G1 X142.417 Y88.435 E.05083
G1 X142.417 Y113.435 E1.10887
G1 X142.025 Y114.798 E.06291
G1 X140.968 Y115.744 E.06292
G1 X139.851 Y116 E.05083
G1 X114.851 Y116 E1.10887
G1 X113.488 Y115.608 E.06291
G1 X112.541 Y114.551 E.06295
G1 X112.285 Y113.435 E.05079
G1 X112.285 Y111.769 E.0739
G1 X112.285 Y111.769 F10800
G1 X112.663 Y111.769
G1 F2700
G1 X112.663 Y88.435 E1.03498
G1 X113.053 Y87.186 E.05804
G1 X114.086 Y86.384 E.05801
G1 X114.851 Y86.246 E.03448
G1 X139.851 Y86.246 E1.10887
G1 X141.099 Y86.637 E.05801
G1 X141.902 Y87.67 E.05803
G1 X142.04 Y88.435 E.03448
G1 X142.04 Y113.435 E1.10887
G1 X141.649 Y114.683 E.05801
G1 X140.616 Y115.485 E.05801
G1 X139.851 Y115.623 E.03448
G1 X114.851 Y115.623 E1.10887
G1 X113.603 Y115.232 E.05801
G1 X112.801 Y114.199 E.05801
G1 X112.663 Y113.435 E.03444
G1 X112.663 Y111.829 E.07123
;WIPE_START
G1 F8640
G1 X112.663 Y111.769 E-.01385
G1 X112.663 Y108.364 E-.78615
;WIPE_END
G1 Z.9 F720
; printing object cut_box.STL id:0 copy 0
G1 X139.065 Y89.22 F10800
G1 Z.5 F720
G1 E.8 F2100
M204 S800
;TYPE:Perimeter
;WIDTH:0.5
G1 F3000
G1 X139.065 Y112.649 E1.27296
G1 X115.637 Y112.649 E1.27291
G1 X115.637 Y89.22 E1.27296
M73 P11 R14
G1 X139.005 Y89.22 E1.26965
M73 Q11 S14
M204 S1000
G1 X139.005 Y89.22 F10800
G1 X139.551 Y88.735
M204 S800
;TYPE:External perimeter
;WIDTH:0.6
G1 F2099.997
G1 X139.551 Y113.135 E1.63005
G1 X115.151 Y113.135 E1.63005
G1 X115.151 Y88.735 E1.63005
G1 X139.491 Y88.735 E1.62604
M204 S1000
;WIPE_START
G1 F8640
G1 X139.551 Y88.735 E-.01385
G1 X139.551 Y92.14 E-.78615
;WIPE_END
G1 Z.9 F720
G1 X116.147 Y89.648 F10800
G1 Z.5 F720
G1 E.8 F2100
;TYPE:Solid infill
;WIDTH:0.605691
G1 F4800
G1 X116.099 Y89.6 E.00458
G1 X116.034 Y89.617 E.00454
G1 X116.016 Y89.683 E.00462
G1 X116.064 Y89.731 E.00458
G1 X116.129 Y89.713 E.00455
;WIDTH:0.5
G1 X116.029 Y90.409 E.0382
G1 X116.825 Y89.612 E.0612
G1 X117.441 Y89.612 E.03347
G1 X116.029 Y91.025 E.10853
G1 X116.029 Y91.641 E.03347
G1 X118.057 Y89.612 E.15587
G1 X118.673 Y89.612 E.03347
G1 X116.029 Y92.257 E.2032
G1 X116.029 Y92.873 E.03347
G1 X119.29 Y89.612 E.25057
G1 X119.906 Y89.612 E.03347
G1 X116.029 Y93.489 E.2979
G1 X116.029 Y94.105 E.03347
G1 X120.522 Y89.612 E.34523
G1 X121.138 Y89.612 E.03347
G1 X116.029 Y94.721 E.39257
G1 X116.029 Y95.337 E.03347
G1 X121.754 Y89.612 E.4399
G1 X122.37 Y89.612 E.03347
G1 X116.029 Y95.953 E.48723
G1 X116.029 Y96.569 E.03347
G1 X122.986 Y89.612 E.53456
G1 X123.602 Y89.612 E.03347
G1 X116.029 Y97.185 E.5819
G1 X116.029 Y97.802 E.03352
G1 X124.218 Y89.612 E.62927
G1 X124.834 Y89.612 E.03347
G1 X116.029 Y98.418 E.6766
G1 X116.029 Y99.034 E.03347
G1 X125.45 Y89.612 E.72393
G1 X126.066 Y89.612 E.03347
G1 X116.029 Y99.65 E.77126
G1 X116.029 Y100.266 E.03347
G1 X126.682 Y89.612 E.8186
G1 X127.298 Y89.612 E.03347
G1 X116.029 Y100.882 E.86593
G1 X116.029 Y101.498 E.03347
G1 X127.914 Y89.612 E.91326
G1 X128.53 Y89.612 E.03347
G1 X116.029 Y102.114 E.96059
G1 X116.029 Y102.73 E.03347
G1 X129.146 Y89.612 E1.00792
G1 X129.763 Y89.612 E.03352
G1 X116.029 Y103.346 E1.0553
G1 X116.029 Y103.962 E.03347
M73 P12 R14
G1 X130.379 Y89.612 E1.10263
G1 X130.995 Y89.612 E.03347
G1 X116.029 Y104.578 E1.14996
G1 X116.029 Y105.194 E.03347
G1 X131.611 Y89.612 E1.19729
G1 X132.227 Y89.612 E.03347
M73 Q12 S14
G1 X116.029 Y105.81 E1.24462
G1 X116.029 Y106.426 E.03347
G1 X132.843 Y89.612 E1.29196
G1 X133.459 Y89.612 E.03347
G1 X116.029 Y107.042 E1.33929
G1 X116.029 Y107.658 E.03347
G1 X134.075 Y89.612 E1.38662
G1 X134.691 Y89.612 E.03347
G1 X116.029 Y108.275 E1.43399
G1 X116.029 Y108.891 E.03347
G1 X135.307 Y89.612 E1.48132
G1 X135.923 Y89.612 E.03347
G1 X116.029 Y109.507 E1.52866
G1 X116.029 Y110.123 E.03347
G1 X136.539 Y89.612 E1.57599
G1 X137.155 Y89.612 E.03347
G1 X116.029 Y110.739 E1.62332
G1 X116.029 Y111.355 E.03347
G1 X137.771 Y89.612 E1.67065
G1 X138.387 Y89.612 E.03347
G1 X116.029 Y111.971 E1.71799
G1 X116.004 Y112.154 E.01004
;WIDTH:0.45219
G1 X115.979 Y112.337 E.00893
;WIDTH:0.404381
G1 X115.908 Y112.318 E.00312
G1 X115.927 Y112.389 E.00312
G1 X115.968 Y112.378 E.0018
;WIDTH:0.5
G1 X116.359 Y112.257 E.02224
G1 X138.673 Y89.942 E1.71461
G1 X138.673 Y90.558 E.03347
G1 X116.975 Y112.257 E1.66727
G1 X117.591 Y112.257 E.03347
G1 X138.673 Y91.174 E1.61994
G1 X138.673 Y91.79 E.03347
G1 X118.207 Y112.257 E1.57261
G1 X118.823 Y112.257 E.03347
G1 X138.673 Y92.407 E1.52524
G1 X138.673 Y93.023 E.03347
G1 X119.439 Y112.257 E1.47791
G1 X120.055 Y112.257 E.03347
G1 X138.673 Y93.639 E1.43057
G1 X138.673 Y94.255 E.03347
G1 X120.671 Y112.257 E1.38324
G1 X121.287 Y112.257 E.03347
G1 X138.673 Y94.871 E1.33591
G1 X138.673 Y95.487 E.03347
M73 P13 R14
G1 X121.903 Y112.257 E1.28858
G1 X122.519 Y112.257 E.03347
G1 X138.673 Y96.103 E1.24124
G1 X138.673 Y96.719 E.03347
G1 X123.135 Y112.257 E1.19391
G1 X123.751 Y112.257 E.03347
M73 Q13 S14
G1 X138.673 Y97.335 E1.14658
G1 X138.673 Y97.951 E.03347
G1 X124.367 Y112.257 E1.09925
G1 X124.984 Y112.257 E.03352
G1 X138.673 Y98.567 E1.05188
G1 X138.673 Y99.183 E.03347
G1 X125.6 Y112.257 E1.00454
G1 X126.216 Y112.257 E.03347
G1 X138.673 Y99.799 E.95721
G1 X138.673 Y100.415 E.03347
G1 X126.832 Y112.257 E.90988
G1 X127.448 Y112.257 E.03347
G1 X138.673 Y101.031 E.86255
G1 X138.673 Y101.647 E.03347
G1 X128.064 Y112.257 E.81521
G1 X128.68 Y112.257 E.03347
G1 X138.673 Y102.263 E.76788
G1 X138.673 Y102.88 E.03352
G1 X129.296 Y112.257 E.72051
G1 X129.912 Y112.257 E.03347
G1 X138.673 Y103.496 E.67318
G1 X138.673 Y104.112 E.03347
G1 X130.528 Y112.257 E.62585
G1 X131.144 Y112.257 E.03347
G1 X138.673 Y104.728 E.57851
G1 X138.673 Y105.344 E.03347
G1 X131.76 Y112.257 E.53118
G1 X132.376 Y112.257 E.03347
G1 X138.673 Y105.96 E.48385
G1 X138.673 Y106.576 E.03347
G1 X132.992 Y112.257 E.43652
G1 X133.608 Y112.257 E.03347
G1 X138.673 Y107.192 E.38919
G1 X138.673 Y107.808 E.03347
G1 X134.224 Y112.257 E.34185
G1 X134.84 Y112.257 E.03347
G1 X138.673 Y108.424 E.29452
G1 X138.673 Y109.04 E.03347
G1 X135.457 Y112.257 E.24715
G1 X136.073 Y112.257 E.03347
G1 X138.673 Y109.656 E.19982
G1 X138.673 Y110.272 E.03347
G1 X136.689 Y112.257 E.15249
;WIPE_START
G1 F8640
G1 X138.673 Y110.272 E-.64803
G1 X138.673 Y109.656 E-.14224
G1 X138.643 Y109.686 E-.00973
;WIPE_END
G1 Z.9 F720
G1 X138.519 Y111.042 F10800
G1 Z.5 F720
G1 E.8 F2100
G1 F4800
G1 X137.305 Y112.257 E.09332
G1 X138.673 Y112.257 E.07433
G1 X138.673 Y110.888 E.07438
M106 S170.85
;LAYER_CHANGE
;Z:0.8
;HEIGHT:0.3
;BEFORE_LAYER_CHANGE
G92 E0.0
;0.8


;WIPE_START
G1 F8640
G1 X138.673 Y112.257 E-.31611
G1 X137.305 Y112.257 E-.31587
G1 X137.819 Y111.742 E-.16802
;WIPE_END
G1 Z.8 F720
;AFTER_LAYER_CHANGE
;0.8
; stop printing object cut_box.STL id:0 copy 0
